X:1
T:071 Joyful, joyful, we adore thee
%%score { ( 1 4 ) | ( 2 3 ) }
L:1/8
M:2/2
K:G
V:1 treble nm="Piano"
V:4 treble 
V:2 bass 
V:3 bass 
V:1
 [DB]2 [DB]2 [Dc]2 [Dd]2 | [Dd]2 [Dc]2 [DB]2 [DA]2 | [DG]2 [DG]2 [DA]2 [DB]2 | [DB]3 [DA] [DA]4 | %4
w: Joy- ful, joy- ful,|we a- dore thee,|God of glo- ry,|Lord of love.|
w: All thy works with|joy sur- round thee,|earth and heav'n re-|flect thy rays,|
w: Thou art giv- ing|and for- giv- ing,|ev- er bless- ing,|ev- er bless'd,|
w: Mor- tals, join the|might- y cho- rus|which the morn- ing|stars be- gan.|
 [DB]2 [DB]2 [Ec]2 [=Fd]2 | [=Fd]2 [Ec]2 [EB]2 [EA]2 | [DG]2 [DG]2 [FA]2 [GB]2 | [FA]3 [DG] [DG]4 | %8
w: Hearts un- fold like|flow'rs be- fore thee,|prais- ing thee their|sun a- bove.|
w: stars and an- gels|sing a- round thee,|cen- ter of un-|bro- ken praise.|
w: well- spring of the|joy of liv- ing,|o- cean- depth of|hap- py rest!|
w: Love di- vine is|reign- ing o'er us,|lead- ing us with|mer- cy's hand.|
 [DA]2 [DA]2 [DB]2 G2 | A2 Bc B2 G2 | [FA]2 [GB][Fc] [FB]2 [^DA]2 | [EG]2 [^CA]2 D4 | %12
w: Melt the clouds of|sin and * sad- ness;|drive the * dark of|doubt a- way.|
w: Field and for- est,|vale and * moun- tain,|bloom- ing * mead- ow,|flash- ing sea,|
w: Thou our Fa- ther,|Christ our * broth- er,|all who * live in|love are thine.|
w: Ev- er sing- ing,|march we * on- ward,|vic- tors * in the|midst of strife.|
 [DB]2 [DB]2 [Ec]2 [=Fd]2 | [=Fd]2 [Ec]2 [EB]2 [EA]2 | [DG]2 [DG]2 [FA]2 [GB]2 | %15
w: Giv- er of im-|mor- tal glad- ness,|fill us with the|
w: chant- ing bird and|flow- ing foun- tain,|call us to re-|
w: Giv- er of im-|mor- tal glad- ness,|fill us with the|
w: Joy- ful mu- sic|lifts us sun- ward|in the tri- umph|
 [FA]3 [DG] [DG]4 |] %16
w: light of day!|
w: qoice in thee.|
w: light of day.|
w: song of life!|
V:2
 G,2 G,2 [G,A,]2 [G,B,]2 | [D,B,]2 [D,A,]2 [D,G,]2 [C,F,]2 | [B,,G,]2 [B,,G,]2 [A,,F,]2 [G,,G,]2 | %3
 [D,G,]3 [D,F,] [D,F,]4 | G,2 G,2 G,2 A,B, | [C,B,]2 [C,C]2 [C,D]2 [C,C]2 | %6
 [D,B,]2 [D,B,]2 [D,C]2 [D,D]2 | [D,C]3 [G,,B,] [G,,B,]4 | [D,F,]2 [D,F,]2 [D,G,]2 [D,B,]2 | %9
 D2 G,A, G,2 B,2 | C2 B,A, B,2 B,2 | [E,B,]2 [A,,A,]2 [D,F,]4 | G,2 G,2 G,2 A,B, | %13
 [C,B,]2 [C,C]2 [C,D]2 [C,C]2 | [D,B,]2 [D,B,]2 [D,C]2 [D,D]2 | [D,C]3 [G,,B,] [G,,B,]4 |] %16
V:3
 x8 | x8 | x8 | x8 | G,2 G,2 G,2 G,2 | x8 | x8 | x8 | x8 | D,2 D,2 D,2 D,2 | D,2 D,2 ^D,2 B,,2 | %11
 x8 | G,,2 G,2 G,2 G,2 | x8 | x8 | x8 |] %16
V:4
 x8 | x8 | x8 | x8 | x8 | x8 | x8 | x8 | x8 | F2 D2 D2 D2 | x8 | x8 | x8 | x8 | x8 | x8 |] %16

